docs/img/directions-slider/1.svg

<svg width="80" height="80" viewBox="0 0 80 80" fill="none" xmlns="http://www.w3.org/2000/svg">
<path d="M40.3508 31.0753H33.8529V35.2098H29.6061V41.5978H33.8529V45.7323H40.3508V41.5978H44.5977V35.2098H40.3508V31.0753ZM42.2436 37.5641V39.2435H37.9967V43.378H36.2074V39.2435H31.9605V37.5641H36.2074V33.4296H37.9967V37.5641H42.2436Z" fill="#0098D0"/>
<path d="M16.8415 9.54679H19.1958V6.80417H21.9384V4.44986H19.1958V1.7074H16.8415V4.44986H14.099V6.80417H16.8415V9.54679Z" fill="#0098D0"/>
<path d="M5.09693 19.4135H2.74262V22.1559H0V24.5102H2.74262V27.2528H5.09693V24.5102H7.83939V22.1559H5.09693V19.4135Z" fill="#0098D0"/>
<path d="M5.04861 8.36963H7.40293V10.7239H5.04861V8.36963Z" fill="#0098D0"/>
<path d="M79.273 50.6815C78.1526 48.9775 75.9507 48.222 74.0207 48.8947C72.0507 49.5813 70.7847 51.5851 71.0173 53.6603L68.6241 54.7799C67.7552 53.462 66.5462 52.3686 65.0926 51.643L65.7369 50.337C67.5793 50.5285 69.3814 49.3672 69.899 47.576C70.4033 45.8316 69.5464 43.954 67.9385 43.1345C66.3144 42.3068 64.265 42.7283 63.1105 44.1406C61.825 45.713 62.0388 48.0684 63.574 49.3998L62.8487 50.8699C62.1676 50.7308 61.4887 50.6743 60.8211 50.6894L61.1875 50.4337V18.5379L37.1021 9.93103L13.0164 18.5379V50.4337L37.1019 67.2482L52.56 56.4568C51.8923 58.1571 51.7489 60.0394 52.1598 61.8201L50.4369 62.5028C49.1273 60.9753 46.7846 60.7035 45.1563 61.8764C43.6635 62.9517 43.1293 64.9909 43.9563 66.6448C44.7845 68.3013 46.7409 69.141 48.5189 68.6452C50.2565 68.1607 51.4777 66.4873 51.3405 64.6773L52.9794 64.0278C53.7408 65.47 54.8843 66.7014 56.3038 67.5655L55.3169 69.8481C53.4768 69.6034 51.6344 70.6304 50.8782 72.3264C49.9627 74.3796 50.8597 76.8681 52.8755 77.8616C54.6679 78.7449 56.8869 78.2356 58.1151 76.662C59.5068 74.8788 59.215 72.2346 57.4755 70.7881L58.4579 68.5161C60.3912 69.0841 62.4809 69.002 64.357 68.2607L65.2265 69.8701C64.0131 71.1146 63.823 73.0684 64.7232 74.5465C65.7467 76.2275 67.9538 76.9236 69.7401 76.0715C71.4002 75.2797 72.2337 73.3562 71.7371 71.5982C71.2015 69.7017 69.2632 68.4632 67.3156 68.7835L66.418 67.1221C69.5721 64.8105 70.9054 60.6081 69.6551 56.8972L71.8878 55.8527C73.3407 57.8013 76.1727 58.2304 78.1434 56.8121C80.0749 55.422 80.5817 52.6722 79.273 50.6815ZM66.1499 44.8886C68.3634 44.8886 68.3331 48.1761 66.1499 48.1761C63.9688 48.1761 63.9327 44.8886 66.1499 44.8886ZM47.456 66.607C45.2425 66.607 45.2728 63.3196 47.456 63.3196C49.6372 63.3196 49.6733 66.607 47.456 66.607ZM56.6166 74.4408C56.2897 76.0163 54.1795 76.467 53.2315 75.169C52.2274 73.7943 53.4873 71.8604 55.1444 72.2039C56.1544 72.4131 56.8268 73.4273 56.6166 74.4408ZM51.6299 41.774C50.4028 42.9664 49.9571 44.8246 50.5102 46.443L37.1019 55.8034L22.3683 45.5177V25.5809L37.1019 20.5567L51.8355 25.5809V41.5827C51.7671 41.6464 51.6985 41.7103 51.6299 41.774ZM52.9861 46.1835C52.6711 45.7084 52.5562 45.1162 52.6719 44.5579C53.0736 42.62 55.8253 42.2457 56.7183 44.0419C57.8825 46.3829 54.432 48.3646 52.9861 46.1835ZM57.3918 48.6761C58.0134 48.2376 58.5048 47.6609 58.8333 46.9928V49.206L57.8687 49.8793L57.3918 48.6761ZM37.1021 64.3769L15.3707 49.206V20.1966L37.1019 12.431L58.8331 20.1966V43.0123C57.9859 41.2925 56.0949 40.2733 54.1897 40.5277V23.8963L37.1018 18.0694L20.0142 23.8963V46.7457L37.1021 58.6749L51.8237 48.3974C52.74 49.1963 53.9709 49.5921 55.181 49.4877L55.8849 51.2643L37.1021 64.3769ZM67.952 70.9132C70.1375 70.9132 70.2594 74.3425 68.0198 74.2581C65.9383 74.1797 65.7699 70.9132 67.952 70.9132ZM67.6359 61.1571C67.0083 64.184 64.3027 66.4601 61.2043 66.535C58.4194 66.6023 55.8279 64.9001 54.7779 62.3226C53.7525 59.8056 54.3777 56.8365 56.3311 54.9463C58.3461 52.9966 61.4405 52.4885 63.9692 53.7129C66.7173 55.0437 68.2556 58.1682 67.6359 61.1571ZM77.6151 53.594C77.2423 55.3923 74.8266 55.8999 73.7538 54.414C72.6252 52.8509 74.0511 50.6558 75.9391 51.0469C77.0864 51.2847 77.8535 52.4441 77.6151 53.594Z" fill="#0098D0"/>
<path d="M57.327 56.9911H59.6813V59.3454H57.327V56.9911Z" fill="#0098D0"/>
<path d="M27.054 27.2935V29.6478H24.6997V27.2935H27.054ZM27.054 32.0021V34.3564H24.6997V32.0021H27.054Z" fill="#0098D0"/>
</svg>

<svg width="80" height="80" fill="none" xmlns="http://www.w3.org/2000/svg"><path d="M40.35 31.075h-6.497v4.135h-4.247v6.388h4.247v4.134h6.498v-4.134h4.247V35.21H40.35v-4.135zm1.894 6.49v1.678h-4.247v4.135h-1.79v-4.135H31.96v-1.679h4.247V33.43h1.79v4.134h4.247zM16.841 9.547h2.355V6.804h2.742V4.45h-2.742V1.707H16.84V4.45H14.1v2.354h2.742v2.743zM5.097 19.413H2.743v2.743H0v2.354h2.743v2.743h2.354V24.51h2.742v-2.354H5.097v-2.742zM5.049 8.37h2.354v2.354H5.049V8.37z" fill="#0098D0"/><path d="M79.273 50.681c-1.12-1.703-3.322-2.459-5.252-1.786-1.97.686-3.236 2.69-3.004 4.765l-2.393 1.12a9.104 9.104 0 00-3.531-3.137l.644-1.306c1.842.191 3.644-.97 4.162-2.761.504-1.744-.353-3.622-1.96-4.441-1.625-.828-3.674-.407-4.828 1.006-1.286 1.572-1.072 3.927.463 5.259l-.725 1.47a9.091 9.091 0 00-2.028-.18l.367-.256V18.538L37.102 9.93l-24.086 8.607v31.896l24.086 16.814 15.458-10.79a9.117 9.117 0 00-.4 5.363l-1.723.683c-1.31-1.528-3.652-1.8-5.28-.627-1.493 1.076-2.028 3.115-1.2 4.769.828 1.656 2.784 2.496 4.562 2 1.738-.484 2.959-2.158 2.822-3.968l1.638-.65a9.137 9.137 0 003.325 3.538l-.987 2.283c-1.84-.245-3.683.782-4.439 2.478-.915 2.054-.018 4.542 1.998 5.536a4.293 4.293 0 005.24-1.2c1.39-1.783 1.099-4.427-.64-5.874l.982-2.272a9.113 9.113 0 005.899-.255l.87 1.61c-1.214 1.244-1.404 3.197-.504 4.675 1.024 1.681 3.23 2.378 5.017 1.525 1.66-.791 2.494-2.715 1.997-4.473-.535-1.896-2.474-3.135-4.421-2.814l-.898-1.662c3.154-2.311 4.487-6.514 3.237-10.225l2.233-1.044c1.453 1.948 4.285 2.377 6.255.96 1.932-1.391 2.439-4.14 1.13-6.132zM66.15 44.89c2.213 0 2.183 3.287 0 3.287-2.181 0-2.217-3.287 0-3.287zM47.456 66.607c-2.214 0-2.183-3.287 0-3.287 2.181 0 2.217 3.287 0 3.287zm9.16 7.834c-.326 1.575-2.437 2.026-3.385.728-1.004-1.375.256-3.309 1.913-2.965a1.91 1.91 0 011.473 2.237zM51.63 41.774a4.541 4.541 0 00-1.12 4.669l-13.408 9.36-14.734-10.285V25.58l14.734-5.024 14.734 5.024v16.002l-.206.191zm1.356 4.41a2.165 2.165 0 01-.314-1.626c.402-1.938 3.153-2.312 4.046-.516 1.164 2.34-2.286 4.323-3.732 2.142zm4.406 2.492a4.47 4.47 0 001.441-1.683v2.213l-.964.673-.477-1.203zm-20.29 15.7l-21.731-15.17v-29.01l21.73-7.765 21.732 7.766v22.815c-.847-1.72-2.738-2.739-4.643-2.484V23.896L37.102 18.07l-17.088 5.827v22.85l17.088 11.929 14.722-10.278a4.55 4.55 0 003.357 1.09l.704 1.777-18.783 13.113zm30.85 6.537c2.186 0 2.307 3.43.068 3.345-2.082-.078-2.25-3.345-.068-3.345zm-.316-9.756c-.628 3.027-3.333 5.303-6.432 5.378-2.785.067-5.376-1.635-6.426-4.212-1.026-2.517-.4-5.486 1.553-7.377 2.015-1.95 5.11-2.457 7.638-1.233 2.748 1.33 4.287 4.455 3.667 7.444zm9.98-7.563c-.374 1.798-2.79 2.306-3.862.82-1.129-1.563.297-3.758 2.185-3.367 1.147.238 1.915 1.397 1.676 2.547z" fill="#0098D0"/><path d="M57.327 56.991h2.354v2.354h-2.354v-2.354zM27.054 27.294v2.354H24.7v-2.354h2.354zm0 4.708v2.354H24.7v-2.354h2.354z" fill="#0098D0"/></svg>
